X:1
T:James Gibb editions
T:Cibavit eos - Byrd
T:#
%%score [ 1 2 3 4 ]
L:1/8
Q:1/4=90
M:4/4
K:D
V:1 treble nm="Soprano" snm="S"
V:2 treble nm="Alto" snm="A"
V:3 treble-8 nm="Tenor" snm="T"
V:4 bass nm="Bass" snm="B"
V:1
"^Cibavit eos""^William Byrd\n(1540-1623)" E4 A4- | A4 B4 | c8 | B4 z2 A2- | A2 d4 c2 | d2 e2 A4 | %6
w: Ci- ba\-|* vit|e-|os, ci\-|* ba- vit|e\- * os|
[M:4/4] z2 e2 f3 f | e2 c2 d4 | c2 (A2 B2) (c2- | c B A4 ^G2) | A4 z4 | z4 c3 c | ^d2 e2 d3 e | %13
w: ex a- di-|pe fru- men-|ti, fru\- * men\-||ti,|Al- le-|lu- ia, Al- le-|
 f4 e4 | z2 E4 E2 | A3 F (^G2 A2) | B4 z4 | A4 G2 B2- | BA (Bc d B d2- | d2 c2) d2 A2- | %20
w: lu- ia.|Et de|pe- tra mel\- *|le|sa- tu- ra\-|* vit e\- * * * *|* * os, et|
 AA^GA B2 E2 | B2 A B2 ^G (AG/F/ | ^G A2 G) A4 | c3 e d2 c2 | z B2 B (c^d) e2 | f3 d (e3 c | %26
w: * de pe- tra mel- le|sa- tu- ra- vit e\- * *|* * * os.|Al- le- lu- ia,|Al- le- lu\- * ia,|Al- le- lu\- *|
 d3 B c3 A | B2 A4 ^G2) | !fermata!A8!fine! ||"^Versus" A3 B c2 d2 | e4 B4 | z2 e3 d d2- | %32
w: ||ia.|Ex- ul- ta- te|De- o|ad- ju- to\-|
 d2 c2 B4 | A2 d3 c c2- | c2 B2 (B A A2- | A2) ^G2 z2 A2- | AEFG A2 E2 | ^G4 A4 | z2 B3 ^GAB | %39
w: * ri no-|stro, ad- ju- to\-|* ri no\- * *|* stro: Ju\-|* bi- la- te De- o|Ja- cob,|ju- bi- la- te|
 c2 A2 z2 e2- | ecde f2 d2 | (e3 d/ c/ d4) | c4 z2 d2- | dd B2 B4 | B4 z2 A2 | A3 A A4 | %46
w: De- o, ju\-|* bi- la- te De- o|Ja\- * * *|cob. Glo\-|* ri- a Pa-|tri, et|Fi- li- o,|
 z2 B4 d2- | dc B4 ^A2 | B2 F2 z2 B2- | B2 A2 G4 | F2 A4 B2 | c3 c B4 | B2 d4 c2 | B4 ^A4 | z8 | %55
w: et Spi\-|* ri- tu- i|San- cto, Si\-|* cut e-|rat in prin-|ci- pi- o|et nunc et|sem- per,||
 z2 B3 c d2- | d2 c2 d2 F2- | F^G A4 G2 | A4 e3 d | B2 c2 d4 | c4 z4 | f3 e ^d2 e2 | f4 e4 | %63
w: et in sae\-|* cu- la, et|* in sae- cu-|la sae- cu-|lo- rum, A-|men,|sae- cu- lo- rum,|A- men,|
 z2 B3 A ^G2- | GA (B4 A2- | A2 ^G2) !fermata!A8!D.C.! |] %66
w: sae- cu- lo\-|* rum. A\- *|* * men.|
V:2
 z4 z2 F2- | F2 A4 ^G2 | A4 A,4 | z4 z2 E2 | F3 F E2 A,2 | B,4 A,2 A2 |[M:4/4] (^G2 A>=G F E D2) | %7
w: Ci\-|* ba- vit|e- os|ex|a- di- pe fru-|men- ti, fru-|men\- * * * * *|
 C4 z2 F2 | A3 A ^G2 E2 | (G2 F E2 D/C/ B,D) | C4 z4 | z4 A3 A | B2 E2 z2 GG | (FG/A/ BA) ^G4 | %14
w: ti, ex|a- di- pe fru-|men\- * * * * * *|ti.|Al- le-|lu- ia, Al- le-|lu\- * * * * ia.|
 z8 | z4 z2 A2- | A2 ^G2 A3 A, | (C2 D2) E4 | D3 C B,2 A,2 | G4 F2 F2- | F2 E2 G4- | G2 F2 E4- | %22
w: |Et|* de pe- tra|mel\- * le|sa- tu- ra- vit|e- os, sa\-|* tu- ra\-|* vit e\-|
 E4 C4 | z E2 E (F^G) A2 | ^G3 B A2 G2 | z2 B3 A (A2- | A ^G/ F/ B2) E2 A>F | (G>E F>D ED/C/ B,D) | %28
w: * os.|Al- le- lu\- * ia,|Al- le- lu- ia,|Al- le- lu\-|* * * * ia, Al- le-|lu\- * * * * * * * *|
 !fermata!C8 || z8 | E3 F ^G2 G2 | A4 E2 B2- | BA A4 G2 | F4 E2 A,2- | A,2 B,2 ^G,2 A,2 | %35
w: ia.||Ex- ul- ta- te|De- o ad\-|* ju- to- ri|no- stro, ad\-|* ju- to- ri|
 (E,3 D) C4 | z8 | z2 E3 CDE | F2 ^D2 E4 | A,2 z A2 ^GAB | (c2 B2) A2 (B2- | B A/ ^G/ A3 G/F/ G2) | %42
w: no\- * stro:||Ju- bi- la- te|De- o Ja-|cob, ju- bi- la- te|De\- * o Ja\-||
 A4 z2 F2- | FF G2 F4 | B,2 E4 D2- | DD A,2 z2 E2 | G3 F D3 E | F8 | ^D4 z2 =D2- | D2 D2 D4 | %50
w: cob. Glo\-|* ri- a Pa-|tri, et Fi\-|* li- o, et|Spi- ri- tu- i|San-|cto, Si\-|* cut e-|
 D4 E2 E2 | E3 E E2 G2- | G2 F4 F2 | F4 F4 | z4 z2 A2- | A2 G2 F3 F | E4 D3 E | F2 E2 D4 | C4 z4 | %59
w: rat in prin-|ci- pi- o et|* nunc et|sem- per,|et|* in sae- cu-|la sae- cu-|lo- rum, A-|men,|
 z2 A3 GF^G | A4 D2 F2- | FE^DE (F2 G2) | F2 B3 A ^G2- | GA (BA !courtesy!^GF) E2- | E2 E3 DCD | %65
w: sae- cu- lo- rum,|A- men, sae\-|* cu- lo- rum, A\- *|men, sae- cu- lo\-|* rum, A\- * * * men,|* sae- cu- lo- rum.|
 E4 !fermata!C8 |] %66
w: A- men.|
V:3
 z2 A4 d2- | d2 c2 (d2 e2) | A4 z2 c2 | d3 e c2 c2 | d4 A2 e f- | ff e4 ^d2 | %6
w: Ci- ba\-|* vit e\- *|os ex|a- di- pe fru-|men- ti, ex a\-|* di- pe fru-|
[M:4/4][K:treble-8] e4 A2 F2 | A4 D4 | z2 A2 e3 e | e2 c2 B4 | A4 c3 c | ^d2 e2 z4 | z2 gg (f3 e | %13
w: men- ti, fru-|men- ti,|ex a- di-|pe fru- men-|ti. Al- le-|lu- ia,|Al- le- lu\- *|
 ^d c d2) e4 | c4 B2 c2- | cA (d4 c2) | B2 e2 c2 f2- | f2 F2 (B A G A | B c d3 efd | e4) A4 | %20
w: * * * ia.|Et de pe\-|* tra mel\- *|le sa- tu- ra\-|* vit e\- * * *||* os,|
 c4 B4 | d6 c2 | B4 A4 | z A2 A d2 e2 | z e2 e A2 B2 | d4 c4 | B4 A4 | d3 A B4 | !fermata!A8 || %29
w: sa- tu-|ra- vit|e- os.|Al- le- lu- ia,|Al- le- lu- ia,|Al- le-|lu- ia,|Al- le- lu-|ia.|
 z8 | z8 | A3 B c2 d2 | e4 E4 | z4 z2 e2- | ed d4 c2 | B4 A4 | z2 d3 Acd | e2 E2 (F3 ^G | %38
w: ||Ex- ul- ta- te|De- o|ad-|* ju- to- ri|no- stro:|Ju- bi- la- te|De- o Ja\- *|
 A2 B2) E2 A2- | ABcd e2 c2 | (A2 B c d3 c/B/ | c3 B/ A/ B4) | A4 z2 A2- | AA e2 ^d4 | e2 g4 f2- | %45
w: * * cob, ju\-|* bi- la- te De- o|Ja\- * * * * *||cob. Glo\-|* ri- a Pa-|tri, et Fi\-|
 f2 e2 c4 | B4 B3 A | F2 d2 c4 | B4 z2 B2- | B G A2 B4 | A3 d c2 B2- | B (A/ ^G/ A2) G2 B2 | %52
w: * li- o,|et Spi- ri-|tu- i San-|cto, Si\-|* cut * e-|rat in prin- ci\-|* pi\- * * o et|
 B3 B (B2 c2 | d3 c/B/) c2 c2- | cd e4 ^d2 | e4 B3 A | ^G2 A2 B4 | A4 z4 | e3 d c2 d2 | e4 d4 | %60
w: nunc et sem\- *|* * * per, et|* in sae- cu-|la sae- cu-|lo- rum, A-|men,|sae- cu- lo- rum,|A- men,|
 z2 f3 e^de | (f2 g2 f e e2- | e2 ^d2) e2 (e2- | e2 dc) B2 B2- | BA ^G4 A2 | B4 !fermata!A8 |] %66
w: sae- cu- lo- rum,|A\- * * * *|* * men, A\-|* * * men, sae\-|* cu- lo- rum.|A- men.|
V:4
 z8 | z8 | z2 F,4 A,2- | A,2 ^G,2 A,4 | D,4 z4 | z2 E,2 F,3 F, |[M:4/4] E,2 C,2 D,4 | A,,4 z2 D,2 | %8
w: ||Ci- ba\-|* vit e-|os|ex a- di-|pe fru- men-|ti, ex|
 F,3 F, E,2 C,2 | E,8 | A,,4 A,3 A, | B,2 E,2 z4 | z2 E,E, (B,4 | B,,4) E,4 | A,4 ^G,2 A,2- | %15
w: a- di- pe fru-|men-|ti. Al- le-|lu- ia,|Al- le- lu\-|* ia.|Et de pe\-|
 A,2 D,2 E,4- | E,4 F,4 | F,4 E,4 | G,6 F,2 | E,4 D,4 | z4 E,3 D, | (B,,>C, D,)B,, E,4- | %22
w: * tra mel\-|* le|sa- tu-|ra- vit|e- os,|sa- tu-|ra\- * * vit e\-|
 E,4 A,,4 | A,3 C B,2 A,2 | E,3 G, F,2 E,2 | D,3 B,, (C,3 A,, | B,,3 ^G,, A,,B,,C,D, | %27
w: * os.|Al- le- lu- ia,|Al- le- lu- ia,|Al- le- lu\- *||
 B,, C, D, F, E,4) | !fermata!A,,8 ||[M:4/4] z8 | z8 | z8 | z8 | z8 | z8 | z8 |[M:4/4] z8 | z8 | %38
w: |ia.||||||||||
 z8 | z8 | z8 |[M:4/4] z8 | z4 z2 D,2- | D,D, E,2 B,,4 | E,4 C,2 D,2- | D,2 C,2 A,,4 | E,4 G,3 F, | %47
w: ||||Glo\-|* ri- a Pa-|tri, et Fi\-|* li- o,|et Spi- ri-|
 D,3 E, F,4 | B,,4 z2 G,2- | G,2 F,2 G,4 | D,4 A,2 ^G,2 | A,3 A, E,4 | G,2 B,4 ^A,2 | B,4 F,4 | %54
w: tu- i San-|cto, Si\-|* cut e-|rat in prin-|ci- pi- o|et nunc et|sem- per,|
 A,3 G, F,3 F, | E,4 z4 | z4 z2 D,2- | D,2 C,2 B,,3 B,, | A,,2 A,4 F,2 | G,2 A,2 B,4 | A,4 B,4- | %61
w: et in sae- cu-|la,|et|* in sae- cu-|la sae- cu-|lo- rum, A-|men, A\-|
 B,4 B,,4- | B,,4 E,3 D, | C,2 D,2 E,4- | E,8 | E,4 !fermata!A,,8 |] %66
w: * men,|* sae- cu-|lo- rum. A\-||* men.|

